X:27
T:Rakish Paddy (reel)
I:titlefont Times-Roman 24
I:partsfont Times-Roman 20
R: reel
M:4/4
L:1/8
O:Trad. (6.10.2015/NS)
K:Ador
AB|:"C/D"c2 cB c2 AB|cAAG EGG2|"D"Add^c defe| d=cAG FGAB|
"C/D"c2 cB c2 AB|cAAG EGG2|"D"DEFG ABcA|dcAG FA D2:|
|:"G/D"eg g2 ag g2|eg g2 ed^cd|"D"ea a2 ba a2|ea ag edBd|
"G/D"eg g2 agge|"D"f2 fe defg|afge fde^c|1d=cAG FA D2:|2d=cAG FGAB|
%%vskip
%%begintext
Rakish Paddy
AB |: c2 cB c2 AB | cAAG EGG2 | Add^c defe | d=cAG FGAB |
c2 cB c2 AB | cAAG EGG2 | DEFG ABcA | dcAG FA D2 :|
|: eg g2 ag g2 | eg g2 ed^cd | ea a2 ba a2 | ea ag edBd |
eg g2 agge | f2 fe defg | afge fde^c |1 d=cAG FA D2 :|2 d=cAG FGAB |
%%endtext
%%vskip
P:The Ashplant
K:Edor
"Em"BE~E2 BAGA|BE~E2 ~G2GA %| BE~E2 BABd|gedB "D"A2GA|
%"Em"BE~E2 BAGA|BE~E2 ~G2GA|~B3A (3Bcd ef|gedB "D"A2GA ||
%"Em"B2eB fBeB|~B2ed "D"BAGA|"Em" B2eB fBef |gedB "D"A2GA |
%"Em"B2eB fBeB|~B2ed BAGA|"Em"(3Bcd ef "Bm"~g2ga|gedB A2GA ||
%%vskip
%%begintext
| Em    ||               |       D  |
| Em    ||               |       D  ||
| Em    |           D | Em        |        D  |
| Em    ||        Hm ||
%%endtext
%%vskip
P:Speed The Plough
K:Dmaj
|:"D"d3A BAFB|AFFD "A"EFDE %|"D"~F2AF "G"G2BG|"D"ABde "A"fedc|
%"D"~d3A BAFB|AFFD "A"EFDE|"D"F2AF "G"G2BG|"A"ABde fdd2:|
%|:"D"daaf afdf|"G"~g2fg edBd|"D"Aaaf afdB |"A"ABde fdd2 |
%"D"daaf afdf|"G"~g2fg "Em"edBA|"Bm"F2AF "G"G2BG|"A"ABde fdd2 :|
%%vskip
%%begintext
|: D    |      A  | D   G   | D  A  |
|  D    |      A  | D   G   | A      :|
|: D    | G       | D         | A       |
|  D    | G Em | Hm G | A      :|
%%endtext
%%vskip
%%vskip
%%vskip
%%begintext
ks. Rapalje - Rakish Paddy (Rakish Paddies 2003)
%%endtext

